X:29
T:Watson's Blues
C:Bill Monroe, with arrangement by David Grisman
S:MandoZine TablEdit Archives
Z:TablEdited by Mike Stangeland for MandoZine
L:1/8
Q:260
M:4/4
K:E
 "Bill Monroe solo""E"ee ee e2 BB | "D"=d=d =dB =d^d ee |
 "E"BB BB B=G EE | "A7"AA AA AE EE | "E"[BG][BG] [BG][BG] [BG]F [BE]=D | EE EE E2 EE |
 "B7"[DB,][DB,] [DB,][DB,] [DB,][DB,] [DB,][DB,] | [D2B,2] [DB,]=G, [DB,][DB,] EE |
 "E"ee ee ee eB | "D"=d=d =dB =d^d ee | "E"BB BB [B=G]E EF | "A7"[cA][cA] [c2A2] [cA][A=D] [A2E2] |
 "E"[BG][eB] [BE][BE] [BG][eB] [BE][BE] | "B7/F#"B,2 B,B, GB GB |
 "E"[EB,][EB,] [EB,][EB,] [EB,][EB,] [EB,][EB,] | "E7"[=d2E2B,2] [=dEB,][=dEB,] [=dEB,][EB,] [EB,][EB,] |
 "A7"AA AA AA AA | ce ee =gf ec | "E"BB =GF EE E=D | [E2B,2] [E2B,2] [E2B,2] BB |
 ee/e/ ee e=g e=d | BA =GE B,2 E=D | "B7"[eB][eB] [eB][eB] [eB][eB] [eB][eB] | [e4B4] zB =dB |
 "E"ee ee eB eB | "D"=d=d =dB de [ee]e | BB BB B=G EF | "A"A[cA] [cA][cA] z2 EE |
 "E"[BG][BG] [BG][B2G2]G EC | "B7/F#"B,B, A,=G, ^G,A, B,=D |
 "E"[EB,][EB,] [EB,][EB,] [EB,][EB,] [EB,][EB,] | [E4B,4] zB =dB |
 "David Grisman solo""E"ee ee e2 B=d | "D"=d=d =d=d =dB =de | "E"B3B G2 EA | "A7"AA AA B,C EE |
 "E"GB BB z2 GE | E3E (3B,CE GB | "B7"[BF][BF] [BF][BF] [B2F2] (3Bdf | b8 |
 "E"ee ee eB e=d | "D"=d=d =d=d =dB =de | "E"B3B G2 EA | "A7"AA AA B,C EE |
 "E"[B4G4] G2 EB, | "B7/F#"B,B, B,B, B,^A, =A,G, | "E"EE EE EE (3E=FE | "E7"=D7A |
 "A7"ce z3c e2 | =g2 =g2 (3f=gf e2 | "E"ee ee eB GE | EE EE E2 ee |
 ee' c'b gf ec | B3B (3Bce eB | "B7"[bf][bf] [bf][bf] [bf]f (3dBd | B8 |
 "E"ee ee eB e=d | "D"=d=d =d=d =dB =de | "E"B2 BB G2 EA | "A"AA AA B,C EE |
 "E"[BG]B BB "C7/G"B3/2G3/2E | "B7/F#"B,B, B,B, B,3/2A,3/2G, | "E"EE EE EE EE | e'8 |
